src/16/actions/view-list-tree.svg

<svg xmlns="http://www.w3.org/2000/svg" viewBox="0 0 16 16"><path d="M2 2v5h4v5h3v2h5V9H9v2H7V5h2v2h5V2H9v2H7V2H2zm1 1h3v3H3V3zm7 0h3v3h-3V3z" fill="currentColor" color="#5d656b"/></svg>

<svg xmlns="http://www.w3.org/2000/svg" viewBox="0 0 16 16">
  <defs id="defs3051">
    <style type="text/css" id="current-color-scheme">
      .ColorScheme-Text {
        color:#5d656b;
      }
      </style>
  </defs>
 <path style="fill:currentColor;fill-opacity:1;stroke:none" 
       d="M 2 2 L 2 7 L 6 7 L 6 12 L 7 12 L 9 12 L 9 14 L 14 14 L 14 9 L 9 9 L 9 11 L 7 11 L 7 7 L 7 5 L 9 5 L 9 7 L 14 7 L 14 2 L 9 2 L 9 4 L 7 4 L 7 2 L 2 2 z M 3 3 L 6 3 L 6 6 L 3 6 L 3 3 z M 10 3 L 13 3 L 13 6 L 10 6 L 10 3 z "
     class="ColorScheme-Text"
     />
</svg>
